gnome15-iconpack/elementary/status/16/logitech-g-keyboard-panel.svg

<?xml version="1.0" encoding="UTF-8" standalone="no"?>
<!-- Created with Inkscape (http://www.inkscape.org/) -->

<svg
   xmlns:dc="http://purl.org/dc/elements/1.1/"
   xmlns:cc="http://creativecommons.org/ns#"
   xmlns:rdf="http://www.w3.org/1999/02/22-rdf-syntax-ns#"
   xmlns:svg="http://www.w3.org/2000/svg"
   xmlns="http://www.w3.org/2000/svg"
   xmlns:xlink="http://www.w3.org/1999/xlink"
   xmlns:sodipodi="http://sodipodi.sourceforge.net/DTD/sodipodi-0.dtd"
   xmlns:inkscape="http://www.inkscape.org/namespaces/inkscape"
   width="16"
   height="16"
   id="svg2"
   version="1.1"
   inkscape:version="0.48.0 r9654"
   sodipodi:docname="logitech-g-keyboard-panel.svg">
  <defs
     id="defs4">
    <linearGradient
       gradientTransform="translate(-24.361257,-3.561305)"
       gradientUnits="userSpaceOnUse"
       xlink:href="#linearGradient3587-6-5"
       id="linearGradient2401"
       y2="18.561304"
       x2="32.361256"
       y1="4.561305"
       x1="32.361256" />
    <linearGradient
       id="linearGradient3587-6-5">
      <stop
         offset="0"
         style="stop-color:#000000;stop-opacity:1"
         id="stop3589-9-2" />
      <stop
         offset="1"
         style="stop-color:#363636;stop-opacity:1"
         id="stop3591-7-4" />
    </linearGradient>
    <linearGradient
       inkscape:collect="always"
       xlink:href="#linearGradient3587-6-5"
       id="linearGradient15268"
       gradientUnits="userSpaceOnUse"
       gradientTransform="translate(-24.361257,-3.5792516)"
       x1="32.361256"
       y1="4.561305"
       x2="32.361256"
       y2="18.561304" />
    <linearGradient
       inkscape:collect="always"
       xlink:href="#linearGradient3587-6-5-1"
       id="linearGradient15268-2"
       gradientUnits="userSpaceOnUse"
       gradientTransform="translate(-24.361257,-3.5792516)"
       x1="32.361256"
       y1="4.561305"
       x2="32.361256"
       y2="18.561304" />
    <linearGradient
       id="linearGradient3587-6-5-1">
      <stop
         offset="0"
         style="stop-color:#000000;stop-opacity:1"
         id="stop3589-9-2-0" />
      <stop
         offset="1"
         style="stop-color:#363636;stop-opacity:1"
         id="stop3591-7-4-5" />
    </linearGradient>
  </defs>
  <sodipodi:namedview
     id="base"
     pagecolor="#ffffff"
     bordercolor="#666666"
     borderopacity="1.0"
     inkscape:pageopacity="0"
     inkscape:pageshadow="2"
     inkscape:zoom="15.327746"
     inkscape:cx="15.260746"
     inkscape:cy="6.4766664"
     inkscape:document-units="px"
     inkscape:current-layer="layer1"
     showgrid="false"
     inkscape:window-width="1143"
     inkscape:window-height="734"
     inkscape:window-x="624"
     inkscape:window-y="115"
     inkscape:window-maximized="0" />
  <metadata
     id="metadata7">
    <rdf:RDF>
      <cc:Work
         rdf:about="">
        <dc:format>image/svg+xml</dc:format>
        <dc:type
           rdf:resource="http://purl.org/dc/dcmitype/StillImage" />
        <dc:title />
      </cc:Work>
    </rdf:RDF>
  </metadata>
  <g
     inkscape:label="Layer 1"
     inkscape:groupmode="layer"
     id="layer1"
     transform="translate(0,-1036.3622)">
    <path
       inkscape:connector-curvature="0"
       style="opacity:0.60000012;fill:#ffffff;fill-opacity:1;fill-rule:nonzero;stroke:none;stroke-width:1;marker:none;visibility:visible;display:inline;overflow:visible;enable-background:accumulate"
       d="m 3.2803579,1039.583 c -0.8775846,0 -1.5840876,0.7065 -1.5840876,1.5841 l 0,7.9205 c 0,0.8776 0.706503,1.5841 1.5840876,1.5841 l 9.5045251,0 c 0.877585,0 1.584088,-0.7065 1.584088,-1.5841 l 0,-7.9205 c 0,-0.8776 -0.706503,-1.5841 -1.584088,-1.5841 l -9.5045251,0 z m 5.3462955,1.5594 c 0.3622233,0 0.6769944,0.022 0.9653034,0.074 0.2956905,0.044 0.5602992,0.1067 0.7672922,0.1733 0.214374,0.059 0.386709,0.1315 0.519779,0.198 0.140449,0.066 0.23787,0.1115 0.297016,0.1485 l -0.495027,1.3861 c -0.236564,-0.1257 -0.50632,-0.2331 -0.8167951,-0.3218 -0.3030941,-0.096 -0.6525831,-0.1485 -1.0148061,-0.1485 -0.8057764,0 -1.3703711,0.2421 -1.7325958,0.693 -0.3548382,0.4435 -0.5445325,1.0307 -0.5445301,1.8069 -2.4e-6,0.377 0.035045,0.7291 0.1237568,1.0395 0.088706,0.3031 0.2433528,0.5703 0.4207733,0.7921 0.1774147,0.2218 0.3774056,0.394 0.6435356,0.5197 0.2661229,0.1183 0.5857122,0.1733 0.9405519,0.1733 0.192198,0 0.3619592,0.01 0.4950274,0 0.1404507,-0.01 0.2677716,-0.027 0.3712705,-0.049 l 0,-2.6731 1.7078446,0 0,3.8117 c -0.206994,0.081 -0.531732,0.1588 -0.990055,0.2475 -0.458335,0.096 -1.0103888,0.1485 -1.6830929,0.1485 -0.5766117,0 -1.1109767,-0.095 -1.5840876,-0.2723 -0.465724,-0.1774 -0.8554092,-0.4272 -1.1880657,-0.7673 -0.3326596,-0.3401 -0.6072345,-0.7671 -0.7920438,-1.2623 -0.1774184,-0.4953 -0.2475142,-1.0721 -0.2475137,-1.7078 -5e-7,-0.6432 0.097421,-1.2126 0.2970165,-1.7079 0.199594,-0.4953 0.4693506,-0.8976 0.8167951,-1.2376 0.3474412,-0.3474 0.7470929,-0.6146 1.2128171,-0.792 0.4731108,-0.1774 0.9775761,-0.2722 1.5098334,-0.2722 z"
       id="rect2386-1" />
    <g
       id="layer1-7"
       transform="matrix(0.79204379,0,0,0.79204379,1.6962703,1037.2069)">
      <path
         style="opacity:0.7;fill:url(#linearGradient15268);fill-opacity:1;fill-rule:nonzero;stroke:none;stroke-width:1;marker:none;visibility:visible;display:inline;overflow:visible;enable-background:accumulate"
         d="m 2,0.96875 c -1.108,0 -2,0.892 -2,2 l 0,10 c 0,1.108 0.892,2 2,2 l 12,0 c 1.108,0 2,-0.892 2,-2 l 0,-10 c 0,-1.108 -0.892,-2 -2,-2 l -12,0 z M 8.75,2.9375 c 0.4573273,9.9e-6 0.8547436,0.028427 1.21875,0.09375 0.373326,0.05601 0.707409,0.1347597 0.96875,0.21875 0.270659,0.074676 0.488242,0.1660095 0.65625,0.25 0.177325,0.084009 0.300325,0.1408426 0.375,0.1875 l -0.625,1.75 C 11.045075,5.2788409 10.704492,5.1432577 10.3125,5.03125 9.9298266,4.9099246 9.488577,4.843758 9.03125,4.84375 8.0139118,4.843758 7.3010792,5.1494244 6.84375,5.71875 6.3957468,6.2787566 6.156247,7.0200058 6.15625,8 c -3e-6,0.4760044 0.044247,0.9205039 0.15625,1.3125 0.1119968,0.3826698 0.3072466,0.720003 0.53125,1 0.2239961,0.280002 0.4764959,0.497585 0.8125,0.65625 0.3359952,0.149335 0.7394948,0.218752 1.1875,0.21875 0.2426608,2e-6 0.4569939,0.0093 0.625,0 C 9.6460769,11.1782 9.8068267,11.153 9.9375,11.125 l 0,-3.375 2.15625,0 0,4.8125 c -0.261342,0.102667 -0.671342,0.2005 -1.25,0.3125 -0.578674,0.121333 -1.275673,0.1875 -2.125,0.1875 -0.7280048,0 -1.4026708,-0.11975 -2,-0.34375 -0.5880029,-0.224 -1.0800024,-0.539416 -1.5,-0.96875 -0.4200016,-0.429332 -0.7666679,-0.968415 -1,-1.59375 C 3.9947492,9.53092 3.9062493,8.8026707 3.90625,8 3.9062493,7.1880057 4.0292492,6.4690897 4.28125,5.84375 4.5332487,5.2184243 4.8738317,4.7105915 5.3125,4.28125 5.7511641,3.8425924 6.2557469,3.5052594 6.84375,3.28125 7.4410791,3.0572598 8.0779951,2.9375099 8.75,2.9375 z"
         transform="translate(0,1)"
         id="rect2386"
         inkscape:connector-curvature="0" />
    </g>
  </g>
</svg>

<?xml version="1.0" encoding="UTF-8" standalone="no"?>
<!-- Created with Inkscape (http://www.inkscape.org/) -->

<svg
   xmlns:dc="http://purl.org/dc/elements/1.1/"
   xmlns:cc="http://creativecommons.org/ns#"
   xmlns:rdf="http://www.w3.org/1999/02/22-rdf-syntax-ns#"
   xmlns:svg="http://www.w3.org/2000/svg"
   xmlns="http://www.w3.org/2000/svg"
   xmlns:xlink="http://www.w3.org/1999/xlink"
   xmlns:sodipodi="http://sodipodi.sourceforge.net/DTD/sodipodi-0.dtd"
   xmlns:inkscape="http://www.inkscape.org/namespaces/inkscape"
   width="16"
   height="16"
   id="svg2"
   version="1.1"
   inkscape:version="0.48.0 r9654"
   sodipodi:docname="g15panel.svg">
  <defs
     id="defs4">
    <linearGradient
       gradientTransform="translate(-24.361257,-3.561305)"
       gradientUnits="userSpaceOnUse"
       xlink:href="#linearGradient3587-6-5"
       id="linearGradient2401"
       y2="18.561304"
       x2="32.361256"
       y1="4.561305"
       x1="32.361256" />
    <linearGradient
       id="linearGradient3587-6-5">
      <stop
         offset="0"
         style="stop-color:#000000;stop-opacity:1"
         id="stop3589-9-2" />
      <stop
         offset="1"
         style="stop-color:#363636;stop-opacity:1"
         id="stop3591-7-4" />
    </linearGradient>
    <linearGradient
       inkscape:collect="always"
       xlink:href="#linearGradient3587-6-5"
       id="linearGradient15268"
       gradientUnits="userSpaceOnUse"
       gradientTransform="translate(-24.361257,-3.5792516)"
       x1="32.361256"
       y1="4.561305"
       x2="32.361256"
       y2="18.561304" />
    <linearGradient
       inkscape:collect="always"
       xlink:href="#linearGradient3587-6-5-1"
       id="linearGradient15268-2"
       gradientUnits="userSpaceOnUse"
       gradientTransform="translate(-24.361257,-3.5792516)"
       x1="32.361256"
       y1="4.561305"
       x2="32.361256"
       y2="18.561304" />
    <linearGradient
       id="linearGradient3587-6-5-1">
      <stop
         offset="0"
         style="stop-color:#000000;stop-opacity:1"
         id="stop3589-9-2-0" />
      <stop
         offset="1"
         style="stop-color:#363636;stop-opacity:1"
         id="stop3591-7-4-5" />
    </linearGradient>
  </defs>
  <sodipodi:namedview
     id="base"
     pagecolor="#ffffff"
     bordercolor="#666666"
     borderopacity="1.0"
     inkscape:pageopacity="0"
     inkscape:pageshadow="2"
     inkscape:zoom="15.327746"
     inkscape:cx="15.260746"
     inkscape:cy="6.4766664"
     inkscape:document-units="px"
     inkscape:current-layer="layer1"
     showgrid="false"
     inkscape:window-width="1143"
     inkscape:window-height="734"
     inkscape:window-x="13"
     inkscape:window-y="30"
     inkscape:window-maximized="0" />
  <metadata
     id="metadata7">
    <rdf:RDF>
      <cc:Work
         rdf:about="">
        <dc:format>image/svg+xml</dc:format>
        <dc:type
           rdf:resource="http://purl.org/dc/dcmitype/StillImage" />
        <dc:title />
      </cc:Work>
    </rdf:RDF>
  </metadata>
  <g
     inkscape:label="Layer 1"
     inkscape:groupmode="layer"
     id="layer1"
     transform="translate(0,-1036.3622)">
    <path
       inkscape:connector-curvature="0"
       style="opacity:0.60000013;fill:#ffffff;fill-opacity:1;fill-rule:nonzero;stroke:none;stroke-width:1;marker:none;visibility:visible;display:inline;overflow:visible;enable-background:accumulate"
       d="m 2,1038.3622 c -1.108,0 -2,0.892 -2,2 l 0,10 c 0,1.108 0.892,2 2,2 l 12,0 c 1.108,0 2,-0.892 2,-2 l 0,-10 c 0,-1.108 -0.892,-2 -2,-2 l -12,0 z m 6.75,1.9688 c 0.4573273,0 0.8547436,0.028 1.21875,0.094 0.373326,0.056 0.707409,0.1348 0.96875,0.2188 0.270659,0.075 0.488242,0.166 0.65625,0.25 0.177325,0.084 0.300325,0.1408 0.375,0.1875 l -0.625,1.75 c -0.298675,-0.1587 -0.639258,-0.2943 -1.03125,-0.4063 -0.3826734,-0.1213 -0.823923,-0.1875 -1.28125,-0.1875 -1.0173382,0 -1.7301708,0.3057 -2.1875,0.875 -0.4480032,0.56 -0.687503,1.3013 -0.6875,2.2813 -3e-6,0.476 0.044247,0.9205 0.15625,1.3125 0.1119968,0.3826 0.3072466,0.72 0.53125,1 0.2239961,0.28 0.4764959,0.4975 0.8125,0.6562 0.3359952,0.1493 0.7394948,0.2188 1.1875,0.2188 0.2426608,0 0.4569939,0.01 0.625,0 0.1773269,-0.01 0.3380767,-0.034 0.46875,-0.062 l 0,-3.375 2.15625,0 0,4.8125 c -0.261342,0.1026 -0.671342,0.2005 -1.25,0.3125 -0.578674,0.1213 -1.275673,0.1875 -2.125,0.1875 -0.7280048,0 -1.4026708,-0.1198 -2,-0.3438 -0.5880029,-0.224 -1.0800024,-0.5394 -1.5,-0.9687 -0.4200016,-0.4294 -0.7666679,-0.9685 -1,-1.5938 -0.2240008,-0.6253 -0.3125007,-1.3536 -0.3125,-2.1562 -7e-7,-0.812 0.1229992,-1.531 0.375,-2.1563 0.2519987,-0.6253 0.5925817,-1.1332 1.03125,-1.5625 0.4386641,-0.4387 0.9432469,-0.776 1.53125,-1 0.5973291,-0.224 1.2342451,-0.3437 1.90625,-0.3437 z"
       id="rect2386-1" />
    <g
       id="layer1-7"
       transform="translate(0,1035.3622)">
      <path
         style="opacity:0.69999999999999996;fill:url(#linearGradient15268);fill-opacity:1;fill-rule:nonzero;stroke:none;stroke-width:1;marker:none;visibility:visible;display:inline;overflow:visible;enable-background:accumulate"
         d="M 2 0.96875 C 0.892 0.96875 0 1.86075 0 2.96875 L 0 12.96875 C 0 14.07675 0.892 14.96875 2 14.96875 L 14 14.96875 C 15.108 14.96875 16 14.07675 16 12.96875 L 16 2.96875 C 16 1.86075 15.108 0.96875 14 0.96875 L 2 0.96875 z M 8.75 2.9375 C 9.2073273 2.9375099 9.6047436 2.9659266 9.96875 3.03125 C 10.342076 3.0872598 10.676159 3.1660097 10.9375 3.25 C 11.208159 3.3246762 11.425742 3.4160095 11.59375 3.5 C 11.771075 3.5840093 11.894075 3.6408426 11.96875 3.6875 L 11.34375 5.4375 C 11.045075 5.2788409 10.704492 5.1432577 10.3125 5.03125 C 9.9298266 4.9099246 9.488577 4.843758 9.03125 4.84375 C 8.0139118 4.843758 7.3010792 5.1494244 6.84375 5.71875 C 6.3957468 6.2787566 6.156247 7.0200058 6.15625 8 C 6.156247 8.4760044 6.200497 8.9205039 6.3125 9.3125 C 6.4244968 9.6951698 6.6197466 10.032503 6.84375 10.3125 C 7.0677461 10.592502 7.3202459 10.810085 7.65625 10.96875 C 7.9922452 11.118085 8.3957448 11.187502 8.84375 11.1875 C 9.0864108 11.187502 9.3007439 11.196835 9.46875 11.1875 C 9.6460769 11.178168 9.8068267 11.153002 9.9375 11.125 L 9.9375 7.75 L 12.09375 7.75 L 12.09375 12.5625 C 11.832408 12.665167 11.422408 12.763 10.84375 12.875 C 10.265076 12.996333 9.568077 13.0625 8.71875 13.0625 C 7.9907452 13.0625 7.3160792 12.94275 6.71875 12.71875 C 6.1307471 12.49475 5.6387476 12.179334 5.21875 11.75 C 4.7987484 11.320668 4.4520821 10.781585 4.21875 10.15625 C 3.9947492 9.53092 3.9062493 8.8026707 3.90625 8 C 3.9062493 7.1880057 4.0292492 6.4690897 4.28125 5.84375 C 4.5332487 5.2184243 4.8738317 4.7105915 5.3125 4.28125 C 5.7511641 3.8425924 6.2557469 3.5052594 6.84375 3.28125 C 7.4410791 3.0572598 8.0779951 2.9375099 8.75 2.9375 z "
         transform="translate(0,1)"
         id="rect2386" />
    </g>
  </g>
</svg>
